public/logos/i-gelb.svg

<svg fill="none" height="50" viewBox="0 0 155 50" width="155" xmlns="http://www.w3.org/2000/svg"><rect fill="#fff" height="50" rx="5" width="155"/><path d="m0 5c0-2.76142 2.23858-5 5-5h145c2.761 0 5 2.23858 5 5v40c0 2.7614-2.239 5-5 5h-145c-2.76142 0-5-2.2386-5-5z" fill="#fff"/><g fill="#222"><path d="m8.75 34.1989v-.9487c2.3116-.2063 2.5592-.4125 2.5592-2.8875v-7.425c0-2.2275-.1238-2.3925-2.31153-2.7225v-.8663c1.85753-.2887 3.59123-.7425 5.20103-1.4025v12.4163c0 2.4337.2477 2.6812 2.6006 2.8875v.9487zm1.9401-21.12c0-1.0725.8668-1.8562 1.8575-1.8562 1.032 0 1.8162.7837 1.8162 1.8562 0 .99-.8255 1.815-1.8575 1.815-.9081.0413-1.8162-.825-1.8162-1.815z"/><path d="m27.9029 27.105h-8.3795l.4954-1.98h8.4207z"/><path d="m47.6749 18.7303c-.3302.5775-1.0732 1.5263-1.6511 1.815l-2.1052-.1237c.7018.7837 1.1145 1.8975 1.1145 3.2175 0 3.8775-3.3022 5.775-6.4394 5.775-.6191 0-1.2796-.1238-1.8575-.165-.4953.33-1.1145.99-1.1145 1.485 0 .7012.6605 1.4025 2.3116 1.4025 1.3209 0 2.6418-.0413 3.8389-.0413 2.2703 0 5.2836.7013 5.2836 4.2488 0 3.63-4.293 7.1362-9.1638 7.1362-4.0865 0-6.3156-2.3512-6.3568-4.3725 0-.7837.3302-1.485.8668-2.0212.743-.7013 2.1465-1.8563 3.0546-2.5163-1.3209-.4125-2.229-1.2375-2.7244-1.98-.3302-.5362-.454-1.155-.4128-1.5262 1.4861-.5363 2.6419-1.485 3.2197-2.1863-1.6511-.7012-3.2197-2.3925-3.2197-4.8262 0-4.0838 3.7564-5.9813 6.5633-5.9813 1.2383 0 2.4767.33 3.5086.9075 1.8163-.0825 3.6738-.2887 4.9947-.495zm-11.5166 16.665c-.9494.7425-1.6924 1.7738-1.6924 2.805 0 1.9388 2.1465 3.4238 4.8296 3.4238 3.5086 0 5.2836-1.7738 5.2836-4.0013 0-1.2375-.6192-2.1037-1.6924-2.5575-.9082-.3712-1.9814-.4537-3.5087-.4537-1.7749 0-2.5592.2062-3.2197.7837zm-.6192-11.9625c0 2.805 1.4035 4.8263 3.4674 4.8263 1.6099-.0413 3.0546-1.4438 3.0546-4.29 0-2.8463-1.3622-4.8675-3.4674-4.8675-1.6511.0412-3.0546 1.5262-3.0546 4.3312z"/><path d="m61.9178 31.1488c-2.3116 2.8462-4.8296 3.5062-5.9854 3.5062-4.4993 0-7.1824-3.5887-7.1824-7.6725 0-2.475.9081-4.6612 2.4354-6.3112 1.486-1.65 3.5087-2.6401 5.4075-2.6401 3.0546 0 5.49 2.6813 5.49 5.4863 0 .7013-.1651.99-.8256 1.155-.6192.1238-5.2011.4538-9.5765.6188.0412 4.9087 2.8894 6.8887 5.49 6.8887 1.486 0 2.8482-.5775 4.1691-1.815zm-10.0719-7.3425c2.0639 0 4.0865-.0413 6.1917-.1238.6605 0 .8668-.2062.8668-.7012.0413-1.8563-1.197-3.5888-3.2197-3.5888-1.6924 0-3.3022 1.485-3.8388 4.4138z"/><path d="m63.4023 34.1983v-.9488c2.3116-.2062 2.6418-.4125 2.6418-2.805v-16.995c0-2.4337-.2063-2.5575-2.5179-2.7225v-.86622c1.8988-.20625 4.1691-.825 5.4487-1.27875v21.86247c0 2.3925.289 2.5988 2.6418 2.805v.9488z"/><path d="m80.5726 18.4017c.5779-.2475 1.1145-.3712 1.486-.3712 3.9214 0 7.2237 3.3 7.2237 7.5487 0 5.28-4.293 9.0338-9.2051 9.0338-1.486 0-3.3848-.3713-5.4074-1.2788v-20.0062c0-2.2275-.0826-2.4338-2.4354-2.6813v-.82498c1.7337-.20625 3.9627-.78375 5.3249-1.27875v11.09623zm-2.9721 11.6325c0 .5363.0826.9075.2064 1.2375.2064.7013 1.3209 1.98 3.261 2.0213 3.0546 0 4.9947-2.5575 4.9947-6.7238 0-4.0837-2.5593-6.4762-5.6139-6.4762-1.0319 0-2.1877.2887-2.8482.7012z"/><path d="m97.5273 4h.7v42h-.7z"/></g><path d="m126.988 44.2861c10.811 0 19.575-8.7578 19.575-19.561 0-10.8033-8.764-19.56104-19.575-19.56104-10.81 0-19.574 8.75774-19.574 19.56104 0 10.8032 8.764 19.561 19.574 19.561z" fill="#fff"/><path d="m126.987 33.9924c5.121 0 9.272-4.1484 9.272-9.2657s-4.151-9.2658-9.272-9.2658-9.272 4.1485-9.272 9.2658 4.151 9.2657 9.272 9.2657z" fill="#ffe60b"/><path d="m126.988 4.83984c-11.005 0-19.902 8.89136-19.902 19.88856s8.897 19.8886 19.902 19.8886 19.902-8.8914 19.902-19.8886-8.897-19.88856-19.902-19.88856zm0 39.12206c-10.63 0-19.246-8.6106-19.246-19.2335 0-10.6228 8.616-19.2334 19.246-19.2334s19.247 8.6106 19.247 19.2334c0 10.6229-8.617 19.2335-19.247 19.2335z" fill="#222"/></svg>

<svg width="155" height="50" viewBox="0 0 155 50" fill="none" xmlns="http://www.w3.org/2000/svg">
<rect width="155" height="50" rx="5" fill="white"/>
<path d="M0 5C0 2.23858 2.23858 0 5 0H150C152.761 0 155 2.23858 155 5V45C155 47.7614 152.761 50 150 50H5C2.23858 50 0 47.7614 0 45V5Z" fill="white"/>
<path d="M8.75 34.1989V33.2502C11.0616 33.0439 11.3092 32.8377 11.3092 30.3627V22.9377C11.3092 20.7102 11.1854 20.5452 8.99767 20.2152V19.3489C10.8552 19.0602 12.5889 18.6064 14.1987 17.9464V30.3627C14.1987 32.7964 14.4464 33.0439 16.7993 33.2502V34.1989H8.75ZM10.6901 13.0789C10.6901 12.0064 11.5569 11.2227 12.5476 11.2227C13.5796 11.2227 14.3638 12.0064 14.3638 13.0789C14.3638 14.0689 13.5383 14.8939 12.5063 14.8939C11.5982 14.9352 10.6901 14.0689 10.6901 13.0789V13.0789Z" fill="#222222"/>
<path d="M27.9029 27.105H19.5234L20.0188 25.125H28.4395L27.9029 27.105Z" fill="#222222"/>
<path d="M47.6749 18.7303C47.3447 19.3078 46.6017 20.2566 46.0238 20.5453L43.9186 20.4216C44.6204 21.2053 45.0331 22.3191 45.0331 23.6391C45.0331 27.5166 41.7309 29.4141 38.5937 29.4141C37.9746 29.4141 37.3141 29.2903 36.7362 29.2491C36.2409 29.5791 35.6217 30.2391 35.6217 30.7341C35.6217 31.4353 36.2822 32.1366 37.9333 32.1366C39.2542 32.1366 40.5751 32.0953 41.7722 32.0953C44.0425 32.0953 47.0558 32.7966 47.0558 36.3441C47.0558 39.9741 42.7628 43.4803 37.892 43.4803C33.8055 43.4803 31.5764 41.1291 31.5352 39.1078C31.5352 38.3241 31.8654 37.6228 32.402 37.0866C33.145 36.3853 34.5485 35.2303 35.4566 34.5703C34.1357 34.1578 33.2276 33.3328 32.7322 32.5903C32.402 32.0541 32.2782 31.4353 32.3194 31.0641C33.8055 30.5278 34.9613 29.5791 35.5391 28.8778C33.888 28.1766 32.3194 26.4853 32.3194 24.0516C32.3194 19.9678 36.0758 18.0703 38.8827 18.0703C40.121 18.0703 41.3594 18.4003 42.3913 18.9778C44.2076 18.8953 46.0651 18.6891 47.386 18.4828L47.6749 18.7303ZM36.1583 35.3953C35.2089 36.1378 34.4659 37.1691 34.4659 38.2003C34.4659 40.1391 36.6124 41.6241 39.2955 41.6241C42.8041 41.6241 44.5791 39.8503 44.5791 37.6228C44.5791 36.3853 43.9599 35.5191 42.8867 35.0653C41.9785 34.6941 40.9053 34.6116 39.378 34.6116C37.6031 34.6116 36.8188 34.8178 36.1583 35.3953V35.3953ZM35.5391 23.4328C35.5391 26.2378 36.9426 28.2591 39.0065 28.2591C40.6164 28.2178 42.0611 26.8153 42.0611 23.9691C42.0611 21.1228 40.6989 19.1016 38.5937 19.1016C36.9426 19.1428 35.5391 20.6278 35.5391 23.4328Z" fill="#222222"/>
<path d="M61.9178 31.1488C59.6062 33.995 57.0882 34.655 55.9324 34.655C51.4331 34.655 48.75 31.0663 48.75 26.9825C48.75 24.5075 49.6581 22.3213 51.1854 20.6713C52.6714 19.0213 54.6941 18.0312 56.5929 18.0312C59.6475 18.0312 62.0829 20.7125 62.0829 23.5175C62.0829 24.2188 61.9178 24.5075 61.2573 24.6725C60.6381 24.7963 56.0562 25.1263 51.6808 25.2913C51.722 30.2 54.5702 32.18 57.1708 32.18C58.6568 32.18 60.019 31.6025 61.3399 30.365L61.9178 31.1488ZM51.8459 23.8063C53.9098 23.8063 55.9324 23.765 58.0376 23.6825C58.6981 23.6825 58.9044 23.4763 58.9044 22.9813C58.9457 21.125 57.7074 19.3925 55.6847 19.3925C53.9923 19.3925 52.3825 20.8775 51.8459 23.8063V23.8063Z" fill="#222222"/>
<path d="M63.4023 34.1983V33.2495C65.7139 33.0433 66.0441 32.837 66.0441 30.4445V13.4495C66.0441 11.0158 65.8378 10.892 63.5262 10.727V9.86078C65.425 9.65453 67.6953 9.03578 68.9749 8.58203V30.4445C68.9749 32.837 69.2639 33.0433 71.6167 33.2495V34.1983H63.4023Z" fill="#222222"/>
<path d="M80.5726 18.4017C81.1505 18.1542 81.6871 18.0305 82.0586 18.0305C85.98 18.0305 89.2823 21.3305 89.2823 25.5792C89.2823 30.8592 84.9893 34.613 80.0772 34.613C78.5912 34.613 76.6924 34.2417 74.6698 33.3342V13.328C74.6698 11.1005 74.5872 10.8942 72.2344 10.6467V9.82172C73.9681 9.61547 76.1971 9.03797 77.5593 8.54297V19.6392L80.5726 18.4017ZM77.6005 30.0342C77.6005 30.5705 77.6831 30.9417 77.8069 31.2717C78.0133 31.973 79.1278 33.2517 81.0679 33.293C84.1225 33.293 86.0626 30.7355 86.0626 26.5692C86.0626 22.4855 83.5033 20.093 80.4487 20.093C79.4168 20.093 78.261 20.3817 77.6005 20.7942V30.0342Z" fill="#222222"/>
<path d="M97.5273 4H98.2273V46H97.5273V4Z" fill="#222222"/>
<path d="M126.988 44.2861C137.799 44.2861 146.563 35.5283 146.563 24.7251C146.563 13.9218 137.799 5.16406 126.988 5.16406C116.178 5.16406 107.414 13.9218 107.414 24.7251C107.414 35.5283 116.178 44.2861 126.988 44.2861Z" fill="white"/>
<path d="M126.987 33.9924C132.108 33.9924 136.259 29.844 136.259 24.7267C136.259 19.6094 132.108 15.4609 126.987 15.4609C121.866 15.4609 117.715 19.6094 117.715 24.7267C117.715 29.844 121.866 33.9924 126.987 33.9924Z" fill="#FFE60B"/>
<path d="M126.988 4.83984C115.983 4.83984 107.086 13.7312 107.086 24.7284C107.086 35.7256 115.983 44.617 126.988 44.617C137.993 44.617 146.89 35.7256 146.89 24.7284C146.89 13.7312 137.993 4.83984 126.988 4.83984ZM126.988 43.9619C116.358 43.9619 107.742 35.3513 107.742 24.7284C107.742 14.1056 116.358 5.495 126.988 5.495C137.618 5.495 146.235 14.1056 146.235 24.7284C146.235 35.3513 137.618 43.9619 126.988 43.9619Z" fill="#222222"/>
</svg>
